svgs/thin/rectangles-mixed.svg

<svg xmlns="http://www.w3.org/2000/svg" viewBox="0 0 576 512"><!--! Font Awesome Pro 6.6.0 by @fontawesome - https://fontawesome.com License - https://fontawesome.com/license (Commercial License) Copyright 2024 Fonticons, Inc. --><path d="M272 48c17.7 0 32 14.3 32 32l0 128c0 17.7-14.3 32-32 32L48 240c-17.7 0-32-14.3-32-32L16 80c0-17.7 14.3-32 32-32l224 0zM48 32C21.5 32 0 53.5 0 80L0 208c0 26.5 21.5 48 48 48l224 0c26.5 0 48-21.5 48-48l0-128c0-26.5-21.5-48-48-48L48 32zM528 48c17.7 0 32 14.3 32 32l0 256c0 17.7-14.3 32-32 32l-96 0c-17.7 0-32-14.3-32-32l0-256c0-17.7 14.3-32 32-32l96 0zM432 32c-26.5 0-48 21.5-48 48l0 256c0 26.5 21.5 48 48 48l96 0c26.5 0 48-21.5 48-48l0-256c0-26.5-21.5-48-48-48l-96 0zM112 320l176 0c17.7 0 32 14.3 32 32l0 80c0 17.7-14.3 32-32 32l-176 0c-17.7 0-32-14.3-32-32l0-80c0-17.7 14.3-32 32-32zM64 352l0 80c0 26.5 21.5 48 48 48l176 0c26.5 0 48-21.5 48-48l0-80c0-26.5-21.5-48-48-48l-176 0c-26.5 0-48 21.5-48 48z"/></svg>

<svg xmlns="http://www.w3.org/2000/svg" viewBox="0 0 576 512"><!--! Font Awesome Pro 6.4.0 by @fontawesome - https://fontawesome.com License - https://fontawesome.com/license (Commercial License) Copyright 2023 Fonticons, Inc. --><path d="M272 48c17.7 0 32 14.3 32 32V208c0 17.7-14.3 32-32 32H48c-17.7 0-32-14.3-32-32V80c0-17.7 14.3-32 32-32H272zM48 32C21.5 32 0 53.5 0 80V208c0 26.5 21.5 48 48 48H272c26.5 0 48-21.5 48-48V80c0-26.5-21.5-48-48-48H48zM528 48c17.7 0 32 14.3 32 32V336c0 17.7-14.3 32-32 32H432c-17.7 0-32-14.3-32-32V80c0-17.7 14.3-32 32-32h96zM432 32c-26.5 0-48 21.5-48 48V336c0 26.5 21.5 48 48 48h96c26.5 0 48-21.5 48-48V80c0-26.5-21.5-48-48-48H432zM112 320H288c17.7 0 32 14.3 32 32v80c0 17.7-14.3 32-32 32H112c-17.7 0-32-14.3-32-32V352c0-17.7 14.3-32 32-32zM64 352v80c0 26.5 21.5 48 48 48H288c26.5 0 48-21.5 48-48V352c0-26.5-21.5-48-48-48H112c-26.5 0-48 21.5-48 48z"/></svg>
